X:1
T:He’ll Come and Tarry Not
T:He’ll Come and Tarry Not
T:William James Kirkpatrick (1838-1921)
T:Thomas D. W. Muir (1855-1931)
T:Public Domain Courtesy of the Cyber Hymnal™
T:Public Domain Courtesy of the Cyber Hymnal™
C:William James Kirkpatrick (1838-1921)
Z:Public Domain
Z:Courtesy of the Cyber Hymnal™
%%score ( 1 2 ) ( 3 4 )
L:1/8
Q:1/4=100
M:4/4
K:C
V:1 treble 
V:2 treble 
V:3 bass 
V:4 bass 
V:1
 [EG]2 | [EG]3 [EG] [^D^F][EG][=FA][EG] | [Ec]6 [CE]2 | [DF]3 [CE] [B,D][FA][EG][DF] | %4
w: 1.~O|child of God, there is for|thee A|hope that shines a- mid the|
w: 2.~When|in this world His hands had|made, No|room was found for Je- sus|
w: 3.~Ex-|alt- ed now to Heav- en’s|throne, The|Sav- ior there of sin- ful|
w: 4.~O|child of God, thy lot may|be Oft|mixed with tri- al, grief and|
w: 5.~Then|joy un- min- gled will be|thine, Earth’s|tears and tri- als all for-|
 [CE]6 [EG]2 | [Ec]3 [Ec] [FB][Fd][Gc]G | [FA]6 [^DA]2 | [EG]3 [EG] [DB][DB][FA][FB] | [Ec]6 || %9
w: gloom, A|glad- some hope that thou shalt|see Thy|Lord, for He will sure- ly|come.|
w: then; The|mount- ain- side was oft His|bed; Now,|glor- i- fied, He comes a-|gain.|
w: men; His|lov- ing heart yearns o’er His|own, And|for them He will come a-|gain.|
w: pain; Look|up, He’ll sure- ly come for|thee; He|says, “I’ll quick- ly come a-|gain.”|
w: got; So|cheer thy heart, no more re-|pine, His|word is sure: “He’ll tar- ry|not.”|
"^Refrain" [EG]2 | [EG]6 [CE][EG] | [EG][DF][DF][DF] [DF]2 [DF]2 | [FB]6 [FA][FB] | %13
w: ||||
w: He’ll|come, yes, He’ll|come and tar- ry not; He’ll|come, yes, He’ll|
w: ||||
w: ||||
w: ||||
 [Ec][EG][EG][EG] [EG]2 [EG]2 | [Ge]6 [Gc]2 | [Fc]6 [FA]2 | [EG]3 [EG] [FB]2 (AB) | c6 |] %18
w: |||||
w: come and tar- ry not; He’ll|come, He’ll|come, He’ll|come and tar- ry *|not.|
w: |||||
w: |||||
w: |||||
V:2
 x2 | x8 | x8 | x8 | x8 | x7 G | x8 | x8 | x6 || x2 | x8 | x8 | x8 | x8 | x8 | x8 | x6 F2 | %17
 (EEFF E2) |] %18
V:3
 [C,G,]2 | [C,C]3 [C,C] [C,C][C,C][C,C][C,C] | [C,G,]6 [C,G,]2 | %3
w: ~|~ ~ ~ ~ ~ ~|~ ~|
 [G,,G,]3 [G,,G,] [G,,G,][G,,G,][G,,G,][G,,G,] | [C,G,]6 [C,C]2 | %5
w: ~ ~ ~ ~ ~ ~|~ ~|
 [C,G,]3 [C,G,] [D,G,][D,G,][E,G,][E,C] | [F,C]6 [^F,C]2 | [G,C]3 [G,C] G,G,G,G, | [C,G,]6 || %9
w: ~ ~ ~ ~ ~ ~|~ ~|~ ~ ~ ~ ~ ~|~|
 [C,C]2 | [C,C]2 [C,C][C,C] [C,C]2 [C,G,][C,G,] | [G,,G,][G,,B,][G,,B,][G,,B,] [G,,B,]2 [G,B,]2 | %12
w: ~|~ yes, He’ll come, ~ ~|~ ~ ~ ~ ~ ~|
 [G,D]2 [G,D][G,D] [G,D]2 [G,D][G,D] | [C,C][C,C][C,C][C,C] [C,C]2 [C,C]2 | %14
w: ~ yes, He’ll come ~ ~|~ ~ ~ ~ ~ ~|
 [C,C]2 [C,C][C,C] [C,C]2 (G,_B,) | [F,A,]2 [F,A,][F,A,] [F,A,]2 [F,C]2 | %16
w: ~ yes, He’ll come, ~ *|~ yes, He’ll come ~|
 [G,C]3 [G,C] [G,D]2 [G,D]2 | CG,A,A, G,2 |] %18
w: ~ ~ ~ ~|~ and tar- ry not.|
V:4
 x2 | x8 | x8 | x8 | x8 | x8 | x8 | x4 G,G,G,G, | x6 || x2 | x8 | x8 | x8 | x8 | x6 E,2 | x8 | x8 | %17
 C,6 |] %18

